X:245
T:Castle Kelly
M:C|
L:1/8
Q:120
S:THSP
R:reel
K:Am
"Am"A2cA ~A2cA|"G"GAEF G2 EG|"Am"A2 cA GAcd
|1 "G"ecdB cAAG :|2 "G"egdB cA~A2 ||
"Am"agec d2ed | "G"cAGE G3g | "Am"agec d2cd | "G"eaag "Am"a3b |
agec d2ed | "G"cAGE G2EG |"Am"A2cA GAcd| "G"ecdB "Am"cA A2 |]
